ui/StatusQ/src/assets/img/icons/remove-from-group.svg

<svg fill="none" height="16" viewBox="0 0 16 16" width="16" xmlns="http://www.w3.org/2000/svg"><g fill="#ff2d55"><path clip-rule="evenodd" d="m7.99984 8.66667c1.84095 0 3.33336-1.49239 3.33336-3.33334s-1.49241-3.33333-3.33336-3.33333-3.33334 1.49238-3.33334 3.33333 1.49239 3.33334 3.33334 3.33334zm0-1c1.28866 0 2.33336-1.04467 2.33336-2.33334 0-1.28866-1.0447-2.33333-2.33336-2.33333-1.28867 0-2.33334 1.04467-2.33334 2.33333 0 1.28867 1.04467 2.33334 2.33334 2.33334z" fill-rule="evenodd"/><path d="m8.62287 11.1893c-.0232.2784-.27047.4814-.54979.4778-.02441-.0003-.04886-.0004-.07335-.0004-1.6956 0-3.21726.7447-4.25573 1.9249-.20167.2292-.55901.2603-.77488.0444-.17382-.1738-.19474-.4504-.03483-.6371 1.22271-1.4276 3.03843-2.3322 5.06544-2.3322.05796 0 .11575.0007.17335.0022.27267.0069.47244.2486.44979.5204z"/><path d="m10.6665 10.6667c-.2761 0-.5.2238-.5.5 0 .2761.2239.5.5.5h3.3333c.2762 0 .5-.2239.5-.5 0-.2762-.2238-.5-.5-.5z"/></g></svg>

<svg width="16" height="16" viewBox="0 0 16 16" fill="none" xmlns="http://www.w3.org/2000/svg">
<path fill-rule="evenodd" clip-rule="evenodd" d="M7.99984 8.66667C9.84079 8.66667 11.3332 7.17428 11.3332 5.33333C11.3332 3.49238 9.84079 2 7.99984 2C6.15889 2 4.6665 3.49238 4.6665 5.33333C4.6665 7.17428 6.15889 8.66667 7.99984 8.66667ZM7.99984 7.66667C9.2885 7.66667 10.3332 6.622 10.3332 5.33333C10.3332 4.04467 9.2885 3 7.99984 3C6.71117 3 5.6665 4.04467 5.6665 5.33333C5.6665 6.622 6.71117 7.66667 7.99984 7.66667Z" fill="#FF2D55"/>
<path d="M8.62287 11.1893C8.59967 11.4677 8.3524 11.6707 8.07308 11.6671C8.04867 11.6668 8.02422 11.6667 7.99973 11.6667C6.30413 11.6667 4.78247 12.4114 3.744 13.5916C3.54233 13.8208 3.18499 13.8519 2.96912 13.636C2.7953 13.4622 2.77438 13.1856 2.93429 12.9989C4.157 11.5713 5.97272 10.6667 7.99973 10.6667C8.05769 10.6667 8.11548 10.6674 8.17308 10.6689C8.44575 10.6758 8.64552 10.9175 8.62287 11.1893Z" fill="#FF2D55"/>
<path d="M10.6665 10.6667C10.3904 10.6667 10.1665 10.8905 10.1665 11.1667C10.1665 11.4428 10.3904 11.6667 10.6665 11.6667H13.9998C14.276 11.6667 14.4998 11.4428 14.4998 11.1667C14.4998 10.8905 14.276 10.6667 13.9998 10.6667H10.6665Z" fill="#FF2D55"/>
</svg>
